X:1
T:Les Sérénades
T:Sérénade d'automne
T:à Eugène Cougoul
T:3. Sérénade d'automne
T:Augusta Holmès
T:(Holmès)
T:Les Sérénades
T:OpenScore (CC0)
T:OpenScore (CC0)
T:OpenScore (CC0)
C:Augusta Mary Anne Holmès
Z:(Holmès)
Z:OpenScore (CC0)
%%score 1 { ( 2 4 ) | ( 3 5 ) }
L:1/8
Q:1/4=148
M:3/4
K:Eb
V:1 treble nm="Chant\nVoice"
V:2 treble nm="Piano"
V:4 treble 
V:3 bass 
V:5 bass 
V:1
"^Allegretto agitato"!p!"_Allegretto agitato" G B B2 z B | A c B2 z2 |!f! G B B2 z B | A c B2 z2 | %4
w: Mon a- mour, ô|mon tré- sor,|Don- ne- moi ta|lè- vre‿en- cor;|
!<(! G B (cd!<)! e)[Q:1/4=144]"^rall." (g |!>(! G2) =A3!>)! F |[Q:1/4=142]"^rall." (f2!>(! d2 c2 | %7
w: J'y veux boi- * re un|vin sans mé-|lan- * *|
[Q:1/4=140] B4-)!>)! B z |!p!"^a tempo"[Q:1/4=148] (B_d)"^cresc." d2 z d | (_ce) e2 z2 | %10
w: ge! _|Don- * ne ta|lè- * vre|
 (_d_f) f2 z2 |!f! (e_g) g4- | _g4"^rall."[Q:1/4=144] =g2- | g z!p! f e d c | %14
w: en- * cor!|tou- * jours!|_ Car|_ c'est le temps de|
[Q:1/4=142]"^rall." e G B2 c2- | c z[Q:1/4=140] G2 F2 | E2- E z !fermata!z2 || %17
w: la ven- dan- ge|_ Des a-|mours! _|
!p!"^a tempo"[Q:1/4=148] (GB B2) z2 | (Ac B2) z2 | z2!f! (e3 G | A c B2) z2 | %21
w: Cou- * le,|cou- * le|sans nous|a- pai- ser,|
!<(! G B c d!<)! e[Q:1/4=145]"^rall." (g |!>(! G2-) G!>)!!p! =A!<(! G[Q:1/4=140] F | %23
w: Cou- le sans nous a- pai-|ser, _ O vin cru-|
 f2!<)!!>(! d2[Q:1/4=136] c2 | B4!>)! z2 |!p!"^a tempo"[Q:1/4=148] B2 G3 E |!>(! (c2 A3)!>)! E | %27
w: el du bai-|ser!|Nous qu'un dé-|sir _ mor-|
!>(! (=d2 =B3)!>)! G |!>(! (e2 c3)!>)! G |!>(! (f2 e3)!>)! =A |!f! _g2 e3 =A | (=g2 e3) B | %32
w: tel _ em-|bra- * se,|Nous _ à|qui le bon-|\- heur _ sou-|
!f! a6- | a z !fermata!z2[Q:1/4=145]!>(!"^rall. e dim." g2- | g2 f e d[Q:1/4=142] c | %35
w: rit,|_ Nous|_ ne con- naiss- ons|
 e G B2 c2-!>)! | c z G2 F2 | B4- B z ||!p!"^a tempo"[Q:1/4=148] G B B2!mp! z B | A c B2 z2 | %40
w: pas l'ex- ta- se|_ Qui gué-|rit! _|Mon a- mour, ô|mon tré- sor,|
!f! G B B2 z B | A c B2 z2 |!<(! G B (cd) (e!<)!"^rall."[Q:1/4=142](g) | G2)[Q:1/4=139] =A3!<(! F | %44
w: Don- ne- moi ta|lèvre en- cor!|Gri- sons- nous * aux _|cou- pes du|
[Q:1/4=136]!>(! (f2!<)! d2 c2!>)! | B4-) B z |"^a tempo"[Q:1/4=148]!p! z2 _d2- d z | %47
w: rê- * *|\- ve! _|Non! _|
"^cresc." (_c2 e2-) e z | (_d2 _f2-) f z | z!f! e _g2 f e |!f!!>(! =g6- | %51
w: rien, _ _|rien _ _|ne peut a- pai-|\- ser|
 g/ z/"^molto rall."[Q:1/4=125] f (3e d[Q:1/4=118] c (3d e[Q:1/4=110] (f | %52
w: _ l'an- goisse i- nef- fable et sans|
 (G2)[Q:1/4=100] B2) c2- |[Q:1/4=90] c2!>)!!p![Q:1/4=80]!>(! (G2 F2 | %54
w: trê- * ve|_ Du bai-|
[Q:1/4=70] E2-)!>)! E!pp! z !fermata!z2 |] %55
w: ser! _|
V:2
!p!!>(! ([EG]2- [EGB]2-)!>)! [EGB] z |!>(! ([D-A-c]2 [DAB]2-)!>)! [DAB] z | %2
!f!!>(! ([EG]2- [EGB]2-)!>)! [EGB] z |!>(! ([D-A-c]2 [DAB]2-)!>)! [DAB] z | %4
!f! [EG]2- [EGB]2- [EGB]"^rall." z |!p! [E=A]2 z2 z2 |!pp!"^rall." [D_A]6 | (f2 d2 c2) | %8
!p!"^a tempo" ([G-B]2"_cresc." [GB_d]2-) [GBd] z | ([A_c]2- [Ace]2-) [Ace] z | %10
 ([A_d]2- [Ad_f]2-) [Adf] z |!f! ([=Ae]2- [A-e_g-]4) | [=Ae_g]4"^rall." ([=G-d=g-]2 | %13
 [Geg]) z z2 z2 |!p!"^rall." [Geg] z z2 z2 |!pp! (c4 d2 | e2-) e z !fermata!z2 || %17
!p!"^a tempo"!>(! ([EG]2- [EGB]2-)!>)! [EGB] z |!>(! ([D-A-c]2 [DAB]2-)!>)! [DAB] z | %19
!f!!>(! ([EG]2- [EGB]2-)!>)! [EGB] z |!>(! ([D-A-c]2 [DAB]2-)!>)! [DAB] z | %21
 [EG]2- [EGB]2- [EGB]"^rall." z |!p! [E=A]2 z2 z2 |!pp! [D_A]6 | (f2 d2 c2) | %25
"^a tempo"!p!"_crescendo" (B2 _d4) | (c2 e4) | (=d2 f4) | (e2 g4) | e2- [e=a]4 |!mf! e2- [e=a]4 | %31
 (e2- [eb]4) |!f! [Aea] z z2 z2 | z2 !fermata!z2"^rall."!p! ([G-dg-]2 | [Geg]) z z2 z2 | %35
!pp! [Ge] z z2 z2 |!pp! (c4 _d2- | _d2 =d2-) d z || %38
!p!"^a tempo"!>(! ([G-e]2 [GB]2-)!>)! [GB]!mp! z |!>(! ([D-A-c]2 [DAB]2-)!>)! [DAB] z | %40
!f! ([EG]2- [EGB]2-) [EGB] z |!>(! ([D-A-c]2 [DAB]2-)!>)! [DAB]!f! z | %42
!>(! ([EG]2- [EGB]2-)!>)! [EGB]"^rall." z |!p! [E=A]2 z2 z2 | [D_A]6 |!pp! f2 d2 c2 | %46
"^a tempo"!p! B_d"_crescendo" d2- d z | _ce e2- e z | _d_f f2- f z | (e_g [eg]4) | %50
 [=Gd=g] z z2 z2 |!p! [Geg] z z2 z2 |!pp! [EGB]2 z2 z2 | (c4 d2 | [Ge]2-) [Ge] z !fermata!z2 |] %55
V:3
 (([E,,E,]2 B,,4)) | (([F,,F,]2 B,4)) | (([E,,E,]2 B,,4)) | (([F,,F,]2 B,4)) | (([E,,E,]2 B,,4)) | %5
 [F,,F,]2 z2 z2 | !arpeggio![B,,F,]6- | [B,,F,]2 z2 z2 | (_D2 B,2-) B, z | (E2 _C2-) C z | %10
 (_F2 D2-) D z | (_G2 C4-) | C4 (=B,2 | C) z z2 z2 | [B,,B,] z z2 z2 | B,,2 z2 z2 | %16
!ped! [E,,E,] z E2- E !fermata!z!ped-up! || (([E,,E,]2 B,,4)) | (([F,,F,]2 B,4)) | %19
 (([E,,E,]2 B,,4)) | (([F,,F,]2 B,4)) | (([E,,E,]2 B,,4)) | [F,,F,]2 z2 z2 | [B,,F,]6- | %24
!ped! [B,,F,]2 z2 z2!ped-up! | (_D2 B,4) | (E2 C4) | (F2 D4) | (G2 E4) | F2 C4 | _G2 C4 | %31
 (=G2 B,4) | [C,C] z z2 z2 | z2 !fermata!z2 (([=B,,=B,]2 | [C,C])) z z2 z2 | [B,,B,] z z2 z2 | %36
 !arpeggio![B,,,B,,]2 z2 z2 | z6 || (E,,2 B,,4) | (([F,,F,]2 B,4)) | (([E,,E,]2 B,,4)) | %41
 (([F,,F,]2 B,4)) | (([E,,E,]2 B,,4)) | [F,,F,]2 z2 z2 | [B,,F,]6- | [B,,F,]2 z2 z2 | %46
 (_D2 B,2-) B, z | (E2 _C2-) C z | (_F2 _D2-) D z | (_G2 C4) | [=B,,=B,] z z2 z2 | %51
"^suivez" [C,C] z z2 z2 | [B,,B,]2 z2 z2 | !arpeggio![B,,,B,,] z z2 z2 | %54
 [E,,E,] z E2- E !fermata!z |] %55
V:4
 x6 | x6 | x6 | x6 | x6 | x6 | x6 | !arpeggio![DA] z z2 z2 | x6 | x6 | x6 | x6 | x6 | x6 | x6 | %15
 (A6 | G2-) G x x2 || x6 | x6 | x6 | x6 | x6 | x6 | x6 | !arpeggio![DA] z z2 z2 | G6 | A6 | =B6 | %28
 c6 | =A6 | =A6 | B6 | x6 | x6 | x6 | x6 | A6- | A4- A z || x6 | x6 | x6 | x6 | x6 | x6 | x6 | %45
 !arpeggio![DA]2 x4 | G6 | A6 | A6 | =A6 | x6 | x6 | x6 | A6 | x6 |] %55
V:5
 x6 | x6 | x6 | x6 | x6 | x6 | x6 | x6 | E,6 | E,6 | E,6 | E,4 z2 | x6 | x6 | x6 | x6 | x6 || x6 | %18
 x6 | x6 | x6 | x6 | x6 | x6 | x4 x x | E,6 | E,6 | G,6 | !arpeggio!C,6 | F,6 | F,6 | %31
 !arpeggio!B,,6 | x6 | x6 | x6 | x6 | x6 | x6 || x6 | x6 | x6 | x6 | x6 | x6 | x6 | x6 | E,6 | %47
 E,6 | E,6 | E,6 | x6 | x6 | x6 | x6 | x6 |] %55

